App/Resources/Assets.xcassets/IMDbLogo.imageset/imdb_logo.svg

<?xml version="1.0" encoding="UTF-8" standalone="no"?>
<svg xmlns="http://www.w3.org/2000/svg" preserveAspectRatio="xMidYMid meet" viewBox="0 0 575 289.83" width="575" height="289.83">
  <path d="M575 24.91C573.44 12.15 563.97 1.98 551.91 0H23.32C10.11 2.17 0 14.16 0 28.61v232.25c0 16 12.37 28.97 27.64 28.97h519.95c14.06 0 25.67-11.01 27.41-25.26z" fill="#f6c700"/>
  <path d="M69.35 58.24h45.63v175.65H69.35z" fill="#000000"/>
  <path d="M201.2 139.15c-3.92-26.77-6.1-41.65-6.53-44.62-1.91-14.33-3.73-26.8-5.47-37.44h-59.16v175.65h39.97l.14-115.98 16.82 115.98h28.47l15.95-118.56.15 118.56h39.84V57.09h-59.61z" fill="#000000"/>
  <path d="M346.71 93.63c.5 2.24.76 7.32.76 15.26v68.1c0 11.69-.76 18.85-2.27 21.49-1.52 2.64-5.56 3.95-12.11 3.95V87.13c4.97 0 8.36.53 10.16 1.57 1.8 1.05 2.96 2.69 3.46 4.93m20.61 137.32c5.43-1.19 9.99-3.29 13.69-6.28 3.69-3 6.28-7.15 7.76-12.46 1.49-5.3 2.37-15.83 2.37-31.58v-61.68c0-16.62-.65-27.76-1.66-33.42-1.02-5.67-3.55-10.82-7.6-15.44q-6.09-6.93-17.76-9.96c-7.79-2.02-20.49-3.04-42.58-3.04H287.5v175.65h55.28c12.74-.4 20.92-.99 24.54-1.79" fill="#000000"/>
  <path d="M464.76 204.7c-.84 2.23-4.52 3.36-7.3 3.36-2.72 0-4.53-1.08-5.45-3.25-.92-2.16-1.37-7.09-1.37-14.81v-46.42c0-8 .4-12.99 1.21-14.98.8-1.97 2.56-2.97 5.28-2.97 2.78 0 6.51 1.13 7.47 3.4.95 2.27 1.43 7.12 1.43 14.55v45.01c-.29 9.25-.71 14.62-1.27 16.11m-58.08 26.51h41.08c1.71-6.71 2.65-10.44 2.84-11.19 3.72 4.5 7.81 7.88 12.3 10.12 4.47 2.25 11.16 3.37 16.34 3.37 7.21 0 13.43-1.89 18.68-5.68 5.24-3.78 8.58-8.26 10-13.41 1.42-5.16 2.13-13 2.13-23.54V141.6c0-10.6-.24-17.52-.71-20.77s-1.87-6.56-4.2-9.95-5.72-6.02-10.16-7.9q-6.66-2.82-15.72-2.82c-5.25 0-11.97 1.05-16.45 3.12-4.47 2.07-8.53 5.21-12.17 9.42V55.56h-43.96z" fill="#000000"/>
</svg>

<?xml version="1.0" encoding="UTF-8" standalone="no"?>
<!DOCTYPE svg PUBLIC "-//W3C//DTD SVG 1.1//EN" "http://www.w3.org/Graphics/SVG/1.1/DTD/svg11.dtd">
<svg version="1.1" xmlns="http://www.w3.org/2000/svg" xmlns:xlink="http://www.w3.org/1999/xlink" preserveAspectRatio="xMidYMid meet" viewBox="0 0 575 289.83" width="575" height="289.83"><defs><path d="M575 24.91C573.44 12.15 563.97 1.98 551.91 0C499.05 0 76.18 0 23.32 0C10.11 2.17 0 14.16 0 28.61C0 51.84 0 237.64 0 260.86C0 276.86 12.37 289.83 27.64 289.83C79.63 289.83 495.6 289.83 547.59 289.83C561.65 289.83 573.26 278.82 575 264.57C575 216.64 575 48.87 575 24.91Z" id="d1pwhf9wy2"></path><path d="M69.35 58.24L114.98 58.24L114.98 233.89L69.35 233.89L69.35 58.24Z" id="g5jjnq26yS"></path><path d="M201.2 139.15C197.28 112.38 195.1 97.5 194.67 94.53C192.76 80.2 190.94 67.73 189.2 57.09C185.25 57.09 165.54 57.09 130.04 57.09L130.04 232.74L170.01 232.74L170.15 116.76L186.97 232.74L215.44 232.74L231.39 114.18L231.54 232.74L271.38 232.74L271.38 57.09L211.77 57.09L201.2 139.15Z" id="i3Prh1JpXt"></path><path d="M346.71 93.63C347.21 95.87 347.47 100.95 347.47 108.89C347.47 115.7 347.47 170.18 347.47 176.99C347.47 188.68 346.71 195.84 345.2 198.48C343.68 201.12 339.64 202.43 333.09 202.43C333.09 190.9 333.09 98.66 333.09 87.13C338.06 87.13 341.45 87.66 343.25 88.7C345.05 89.75 346.21 91.39 346.71 93.63ZM367.32 230.95C372.75 229.76 377.31 227.66 381.01 224.67C384.7 221.67 387.29 217.52 388.77 212.21C390.26 206.91 391.14 196.38 391.14 180.63C391.14 174.47 391.14 125.12 391.14 118.95C391.14 102.33 390.49 91.19 389.48 85.53C388.46 79.86 385.93 74.71 381.88 70.09C377.82 65.47 371.9 62.15 364.12 60.13C356.33 58.11 343.63 57.09 321.54 57.09C319.27 57.09 307.93 57.09 287.5 57.09L287.5 232.74L342.78 232.74C355.52 232.34 363.7 231.75 367.32 230.95Z" id="a4ov9rRGQm"></path><path d="M464.76 204.7C463.92 206.93 460.24 208.06 457.46 208.06C454.74 208.06 452.93 206.98 452.01 204.81C451.09 202.65 450.64 197.72 450.64 190C450.64 185.36 450.64 148.22 450.64 143.58C450.64 135.58 451.04 130.59 451.85 128.6C452.65 126.63 454.41 125.63 457.13 125.63C459.91 125.63 463.64 126.76 464.6 129.03C465.55 131.3 466.03 136.15 466.03 143.58C466.03 146.58 466.03 161.58 466.03 188.59C465.74 197.84 465.32 203.21 464.76 204.7ZM406.68 231.21L447.76 231.21C449.47 224.5 450.41 220.77 450.6 220.02C454.32 224.52 458.41 227.9 462.9 230.14C467.37 232.39 474.06 233.51 479.24 233.51C486.45 233.51 492.67 231.62 497.92 227.83C503.16 224.05 506.5 219.57 507.92 214.42C509.34 209.26 510.05 201.42 510.05 190.88C510.05 185.95 510.05 146.53 510.05 141.6C510.05 131 509.81 124.08 509.34 120.83C508.87 117.58 507.47 114.27 505.14 110.88C502.81 107.49 499.42 104.86 494.98 102.98C490.54 101.1 485.3 100.16 479.26 100.16C474.01 100.16 467.29 101.21 462.81 103.28C458.34 105.35 454.28 108.49 450.64 112.7C450.64 108.89 450.64 89.85 450.64 55.56L406.68 55.56L406.68 231.21Z" id="fk968BpsX"></path></defs><g><g><g><use xlink:href="#d1pwhf9wy2" opacity="1" fill="#f6c700" fill-opacity="1"></use><g><use xlink:href="#d1pwhf9wy2" opacity="1" fill-opacity="0" stroke="#000000" stroke-width="1" stroke-opacity="0"></use></g></g><g><use xlink:href="#g5jjnq26yS" opacity="1" fill="#000000" fill-opacity="1"></use><g><use xlink:href="#g5jjnq26yS" opacity="1" fill-opacity="0" stroke="#000000" stroke-width="1" stroke-opacity="0"></use></g></g><g><use xlink:href="#i3Prh1JpXt" opacity="1" fill="#000000" fill-opacity="1"></use><g><use xlink:href="#i3Prh1JpXt" opacity="1" fill-opacity="0" stroke="#000000" stroke-width="1" stroke-opacity="0"></use></g></g><g><use xlink:href="#a4ov9rRGQm" opacity="1" fill="#000000" fill-opacity="1"></use><g><use xlink:href="#a4ov9rRGQm" opacity="1" fill-opacity="0" stroke="#000000" stroke-width="1" stroke-opacity="0"></use></g></g><g><use xlink:href="#fk968BpsX" opacity="1" fill="#000000" fill-opacity="1"></use><g><use xlink:href="#fk968BpsX" opacity="1" fill-opacity="0" stroke="#000000" stroke-width="1" stroke-opacity="0"></use></g></g></g></g></svg>
